X:24
T:Vals efter Spaken
R:vals
A:S\"arna, Dalarna
Z:id:hn-vals-24
M:3/4
L:1/8
K:A
a2 gf ed | c2 Ac e2 | B2 =GB d2 | c2 Ac e2 |
ea gf ed | c2 Ac e2 | B2 =GB dc | A6 :|
|: B2 =GB d2 | c2 Ac e2 | B2 =GB d2 | c2 Ac e2 | 
f2 df a^g | e4 e2 | f2 d2 d2 | =c4 A2 | B2 =G2 G2 |
A2 Bc de | f2 d2 d2 | =c4 A2 | B2 =G2 G2 | A6 :|
<end>
<start>
